Newaita-dark/apps/32/com.github.bartzaalberg.lottery.svg

<svg height="32" viewBox="0 0 32 32" width="32" xmlns="http://www.w3.org/2000/svg" xmlns:xlink="http://www.w3.org/1999/xlink"><linearGradient id="a"><stop offset="0" stop-opacity=".313726"/><stop offset=".222222" stop-opacity=".27451"/><stop offset="1" stop-opacity="0"/></linearGradient><radialGradient id="b" cx="450.908936" cy="189.579361" gradientTransform="matrix(.00000017 -.0781325 -.140638 -.0000001 44.523152 63.595329)" gradientUnits="userSpaceOnUse" r="21.166656" xlink:href="#a"/><radialGradient id="c" cx="450.908936" cy="189.579361" gradientTransform="matrix(-.00000017 .0781325 .140638 .0000001 -12.770119 -7.527482)" gradientUnits="userSpaceOnUse" r="21.166656" xlink:href="#a"/><radialGradient id="d" cx="450.908936" cy="189.579361" gradientTransform="matrix(-.00000017 -.0781325 .140638 -.0000001 -12.770119 63.595329)" gradientUnits="userSpaceOnUse" r="21.166656" xlink:href="#a"/><radialGradient id="e" cx="450.908936" cy="189.579361" gradientTransform="matrix(.00000017 .0781325 -.140638 .0000001 44.52315 -7.527483)" gradientUnits="userSpaceOnUse" r="21.166656" xlink:href="#a"/><linearGradient id="f" gradientTransform="matrix(.0133601 0 0 .062506 12.465386 13.438784)" gradientUnits="userSpaceOnUse" x1="255.323059" x2="255.323044" y1="233.5" y2="254.666656"><stop offset="0" stop-opacity=".27451"/><stop offset="1" stop-opacity="0"/></linearGradient><linearGradient id="g" gradientUnits="userSpaceOnUse" x1="15.876524" x2="15.876524" y1="2.89610399997" y2="28.033934"><stop offset="0" stop-color="#ef5350"/><stop offset="1" stop-color="#f44336"/></linearGradient><linearGradient id="h" gradientUnits="userSpaceOnUse" x1="15.87648" x2="15.87648" y1="28.03386419623" y2="2.89610343548"><stop offset="0" stop-color="#bdbdbd"/><stop offset="1" stop-color="#e0e0e0"/></linearGradient><path d="m18.191406 28.035156h2.648438v-1.324218h-2.648438zm0 0" fill="url(#b)"/><path d="m13.5625 28.035156h-2.648438v1.320313h2.648438zm0 0" fill="url(#c)"/><path d="m13.5625 28.035156h-2.648438v-1.324218h2.648438zm0 0" fill="url(#d)"/><path d="m18.191406 28.035156h2.648438v1.320313h-2.648438zm0 0" fill="url(#e)"/><path d="m13.5625 27.703125h4.628906v1.652344h-4.628906zm0 0" fill="url(#f)"/><path d="m15.875 2.894531c6.941406 0 12.570312 5.628907 12.570312 12.570313s-5.628906 12.570312-12.570312 12.570312-12.566406-5.628906-12.566406-12.570312 5.625-12.570313 12.566406-12.570313zm0 0" fill="url(#g)"/><path d="m15.875 28.035156c-6.960938 0-12.566406-5.605468-12.566406-12.570312 0-.039063 0-.082032 0-.121094.066406 6.902344 5.644531 12.445312 12.566406 12.445312s12.503906-5.542968 12.570312-12.445312v.121094c0 6.964844-5.605468 12.570312-12.570312 12.570312zm0 0" fill-opacity=".196078"/><path d="m15.875 2.894531c-6.960938 0-12.566406 5.605469-12.566406 12.570313v.125c.066406-6.90625 5.644531-12.449219 12.566406-12.449219s12.503906 5.542969 12.570312 12.449219c0-.042969 0-.082032 0-.125 0-6.964844-5.605468-12.570313-12.570312-12.570313zm0 0" fill="#fff" fill-opacity=".392157"/><path d="m15.875 2.800781c-7.011719 0-12.660156 5.652344-12.660156 12.664063 0 7.011718 5.648437 12.664062 12.660156 12.664062 7.015625 0 12.664062-5.652344 12.664062-12.664062 0-7.011719-5.648437-12.664063-12.664062-12.664063zm0 .1875c6.914062 0 12.476562 5.5625 12.476562 12.476563 0 6.914062-5.5625 12.476562-12.476562 12.476562-6.910156 0-12.472656-5.5625-12.472656-12.476562 0-6.914063 5.5625-12.476563 12.472656-12.476563zm0 0" fill="#212121"/><path d="m15.875 8.519531c-.363281 0-.660156.292969-.660156.660157 0 .316406.21875.578124.511718.644531-.699218 1.46875-1.882812 4.316406-2.496093 4.316406-.585938 0-2.207031-1.035156-3.488281-2.191406.113281-.117188.179687-.277344.179687-.453125 0-.367188-.292969-.660156-.660156-.660156-.367188 0-.660157.292968-.660157.660156v.007812l.054688.257813c.101562.234375.332031.394531.605469.394531.046875 0 .09375-.003906.136719-.011719l1.300781 6.070313c1.789062.558594 4.441406.558594 5.175781.558594s3.390625 0 5.175781-.558594l1.300781-6.070313c.046876.007813.09375.011719.140626.011719.269531 0 .503906-.160156.605468-.394531l.054688-.257813c0-.003906 0-.003906 0-.007812 0-.367188-.292969-.660156-.660156-.660156-.367188 0-.660157.292968-.660157.660156 0 .175781.066407.335937.179688.453125-1.28125 1.15625-2.902344 2.191406-3.488281 2.191406-.613282 0-1.800782-2.847656-2.496094-4.316406.292968-.066407.511718-.328125.511718-.644531 0-.367188-.296874-.660157-.664062-.660157zm-4.980469 10.59375.351563 1.644531c1.324218.660157 3.96875.660157 4.628906.660157.664062 0 3.308594 0 4.632812-.660157l.351563-1.644531c-1.777344.503907-4.273437.503907-4.984375.503907-.707031 0-3.203125 0-4.980469-.503907zm0 0" fill="url(#h)"/><path d="m15.875 8.519531c-.363281 0-.660156.292969-.660156.660157 0 .058593.007812.113281.019531.167968.074219-.289062.332031-.496094.640625-.496094.3125 0 .570312.207032.640625.496094.015625-.054687.023437-.109375.023437-.167968 0-.367188-.296874-.660157-.664062-.660157zm-.285156 1.589844c-.703125 1.519531-1.78125 4.03125-2.359375 4.03125-.566407 0-2.09375-.964844-3.355469-2.070313-.03125.078126-.074219.152344-.132812.210938 1.28125 1.15625 2.902343 2.191406 3.488281 2.191406.613281 0 1.796875-2.851562 2.496093-4.316406-.046874-.011719-.09375-.027344-.136718-.046875zm.570312 0c-.039062.019531-.085937.035156-.132812.046875.695312 1.464844 1.882812 4.316406 2.496094 4.316406.585937 0 2.207031-1.035156 3.488281-2.191406-.058594-.058594-.105469-.132812-.136719-.210938-1.257812 1.105469-2.789062 2.070313-3.351562 2.070313-.578126 0-1.65625-2.511719-2.363282-4.03125zm-6.898437.726563c-.367188 0-.660157.292968-.660157.660156v.007812l.027344.128906c.082032-.269531.332032-.46875.632813-.46875.308593 0 .566406.210938.640625.496094.011718-.050781.019531-.105468.019531-.164062 0-.367188-.292969-.660156-.660156-.660156zm13.230469 0c-.367188 0-.660157.292968-.660157.660156 0 .058594.003907.113281.019531.164062.074219-.285156.332032-.496094.640626-.496094.300781 0 .550781.199219.632812.46875l.027344-.128906c0-.003906 0-.003906 0-.007812 0-.367188-.292969-.660156-.660156-.660156zm-11.597657 8.277343.074219.351563c1.773438.480468 4.210938.480468 4.90625.480468.699219 0 3.136719 0 4.910156-.480468l.074219-.351563c-1.777344.503907-4.273437.503907-4.984375.503907-.707031 0-3.203125 0-4.980469-.503907zm0 0" fill="#fff"/><path d="m16.488281 9.492188c-.078125.195312-.25.34375-.460937.394531.0625.128906.128906.269531.195312.417969.1875-.117188.316406-.328126.316406-.566407 0-.085937-.019531-.171875-.050781-.246093zm-1.226562 0c-.03125.074218-.046875.160156-.046875.246093 0 .238281.125.449219.316406.566407.066406-.148438.132812-.289063.195312-.417969-.210937-.050781-.382812-.199219-.464843-.394531zm-6.613281 2.308593c-.03125.078125-.046876.164063-.046876.253907v.007812l.054688.257812c.101562.234376.332031.394532.605469.394532.046875 0 .09375-.003906.136719-.015625l1.300781 6.074219c1.789062.558593 4.441406.558593 5.175781.558593s3.390625 0 5.175781-.558593l1.300781-6.074219c.046876.011719.09375.015625.140626.015625.269531 0 .503906-.160156.605468-.394532l.054688-.257812c0-.003906 0-.007812 0-.007812 0-.089844-.015625-.175782-.050782-.253907l-.003906.023438c-.101562.234375-.335937.394531-.605468.394531-.046876 0-.09375-.003906-.140626-.015625l-1.300781 6.074219c-1.785156.558594-4.441406.558594-5.175781.558594s-3.386719 0-5.175781-.558594l-1.300781-6.074219c-.042969.011719-.089844.015625-.136719.015625-.273438 0-.503907-.160156-.605469-.394531zm1.226562.003907c-.03125.078124-.078125.148437-.132812.207031.054687.050781.113281.101562.171874.152343.003907-.035156.007813-.074218.007813-.109374 0-.089844-.015625-.171876-.046875-.25zm12.003906 0c-.03125.078124-.046875.160156-.046875.25 0 .035156 0 .074218.007813.109374.058594-.050781.113281-.101562.171875-.152343-.058594-.058594-.101563-.128907-.132813-.207031zm-10.984375 7.867187.351563 1.644531c1.324218.660156 3.96875.660156 4.628906.660156.664062 0 3.308594 0 4.632812-.660156l.351563-1.644531c-.039063.011719-.074219.019531-.113281.03125l-.238282 1.117187c-1.324218.660157-3.96875.660157-4.632812.660157-.660156 0-3.304688 0-4.628906-.660157l-.238282-1.117187c-.039062-.011719-.078124-.019531-.113281-.03125zm0 0" fill-opacity=".235294"/><path d="m959.908384 515.147683c-21.966408 0-39.91745 17.714845-39.91745 39.91745 0 19.132033 13.227084 34.957294 30.941928 38.972659-42.279429 88.810421-113.847401 260.998711-150.930476 260.998711-35.42969 0-133.45183-62.592451-210.924751-132.507038 6.84974-7.085938 10.865105-16.770053 10.865105-27.39896 0-22.202605-17.714845-39.91745-39.91745-39.91745s-39.91745 17.714845-39.91745 39.91745v.472396l3.306771 15.589063c6.141146 14.171876 20.076824 23.855991 36.610679 23.855991 2.834375 0 5.66875-.236198 8.266927-.708593l78.653911 367.051581c108.178651 33.776304 268.557045 33.776304 312.962256 33.776304 44.40521 0 205.019802 0 312.962256-33.776304l78.65391-367.051581c2.834375.472395 5.668751.708593 8.503126.708593 16.297657 0 30.469533-9.684115 36.610679-23.855991l3.306771-15.589063c0-.236198 0-.236198 0-.472396 0-22.202605-17.714845-39.91745-39.91745-39.91745-22.202606 0-39.91745 17.714845-39.91745 39.91745 0 10.628907 4.015364 20.313022 10.865104 27.39896-77.47292 69.914587-175.495061 132.507038-210.92475 132.507038-37.083075 0-108.887246-172.18829-150.930477-260.998711 17.714845-4.015365 30.941929-19.840626 30.941929-38.972659 0-22.202605-17.951043-39.91745-40.153648-39.91745zm-301.15236 640.568784 21.257814 99.439328c80.071098 39.91745 239.977096 39.91745 279.894546 39.91745 40.153648 0 200.059646 0 280.130744-39.91745l21.257813-99.439328c-107.470057 30.469533-258.400534 30.469533-301.388557 30.469533-42.751825 0-193.682302 0-301.15236-30.469533zm0 0" fill="none" stroke="#212121" stroke-width="11.338583" transform="scale(.016538)"/></svg>

<?xml version="1.0" encoding="UTF-8"?>
<svg xmlns="http://www.w3.org/2000/svg" xmlns:xlink="http://www.w3.org/1999/xlink" width="32px" height="32px" viewBox="0 0 32 32" version="1.1">
<defs>
<radialGradient id="radial0" gradientUnits="userSpaceOnUse" cx="450.908936" cy="189.579361" fx="450.908936" fy="189.579361" r="21.166656" gradientTransform="matrix(0.00000017417,-0.0781325,-0.140638,-0.000000101539,44.523152,63.595329)">
<stop offset="0" style="stop-color:rgb(0%,0%,0%);stop-opacity:0.313726;"/>
<stop offset="0.222222" style="stop-color:rgb(0%,0%,0%);stop-opacity:0.27451;"/>
<stop offset="1" style="stop-color:rgb(0%,0%,0%);stop-opacity:0;"/>
</radialGradient>
<radialGradient id="radial1" gradientUnits="userSpaceOnUse" cx="450.908936" cy="189.579361" fx="450.908936" fy="189.579361" r="21.166656" gradientTransform="matrix(-0.00000017417,0.0781325,0.140638,0.000000101539,-12.770119,-7.527482)">
<stop offset="0" style="stop-color:rgb(0%,0%,0%);stop-opacity:0.313726;"/>
<stop offset="0.222222" style="stop-color:rgb(0%,0%,0%);stop-opacity:0.27451;"/>
<stop offset="1" style="stop-color:rgb(0%,0%,0%);stop-opacity:0;"/>
</radialGradient>
<radialGradient id="radial2" gradientUnits="userSpaceOnUse" cx="450.908936" cy="189.579361" fx="450.908936" fy="189.579361" r="21.166656" gradientTransform="matrix(-0.00000017417,-0.0781325,0.140638,-0.000000101539,-12.770119,63.595329)">
<stop offset="0" style="stop-color:rgb(0%,0%,0%);stop-opacity:0.313726;"/>
<stop offset="0.222222" style="stop-color:rgb(0%,0%,0%);stop-opacity:0.27451;"/>
<stop offset="1" style="stop-color:rgb(0%,0%,0%);stop-opacity:0;"/>
</radialGradient>
<radialGradient id="radial3" gradientUnits="userSpaceOnUse" cx="450.908936" cy="189.579361" fx="450.908936" fy="189.579361" r="21.166656" gradientTransform="matrix(0.00000017417,0.0781325,-0.140638,0.000000101539,44.52315,-7.527483)">
<stop offset="0" style="stop-color:rgb(0%,0%,0%);stop-opacity:0.313726;"/>
<stop offset="0.222222" style="stop-color:rgb(0%,0%,0%);stop-opacity:0.27451;"/>
<stop offset="1" style="stop-color:rgb(0%,0%,0%);stop-opacity:0;"/>
</radialGradient>
<linearGradient id="linear0" gradientUnits="userSpaceOnUse" x1="255.323059" y1="233.5" x2="255.323044" y2="254.666656" gradientTransform="matrix(0.0133601,0,0,0.062506,12.465386,13.438784)">
<stop offset="0" style="stop-color:rgb(0%,0%,0%);stop-opacity:0.27451;"/>
<stop offset="1" style="stop-color:rgb(0%,0%,0%);stop-opacity:0;"/>
</linearGradient>
<linearGradient id="linear1" gradientUnits="userSpaceOnUse" x1="254" y1="-168.666672" x2="254" y2="233.5" gradientTransform="matrix(0.062506,0,0,0.062506,0,13.438783)">
<stop offset="0" style="stop-color:rgb(93.725491%,32.549021%,31.37255%);stop-opacity:1;"/>
<stop offset="1" style="stop-color:rgb(95.686275%,26.274511%,21.176471%);stop-opacity:1;"/>
</linearGradient>
<linearGradient id="linear2" gradientUnits="userSpaceOnUse" x1="960" y1="1695.118164" x2="960" y2="175.118118" gradientTransform="matrix(0.016538,0,0,0.016538,0,0)">
<stop offset="0" style="stop-color:rgb(74.117649%,74.117649%,74.117649%);stop-opacity:1;"/>
<stop offset="1" style="stop-color:rgb(87.843138%,87.843138%,87.843138%);stop-opacity:1;"/>
</linearGradient>
</defs>
<g id="surface1">
<path style=" stroke:none;fill-rule:nonzero;fill:url(#radial0);" d="M 18.191406 28.035156 L 20.839844 28.035156 L 20.839844 26.710938 L 18.191406 26.710938 Z M 18.191406 28.035156 "/>
<path style=" stroke:none;fill-rule:nonzero;fill:url(#radial1);" d="M 13.5625 28.035156 L 10.914062 28.035156 L 10.914062 29.355469 L 13.5625 29.355469 Z M 13.5625 28.035156 "/>
<path style=" stroke:none;fill-rule:nonzero;fill:url(#radial2);" d="M 13.5625 28.035156 L 10.914062 28.035156 L 10.914062 26.710938 L 13.5625 26.710938 Z M 13.5625 28.035156 "/>
<path style=" stroke:none;fill-rule:nonzero;fill:url(#radial3);" d="M 18.191406 28.035156 L 20.839844 28.035156 L 20.839844 29.355469 L 18.191406 29.355469 Z M 18.191406 28.035156 "/>
<path style=" stroke:none;fill-rule:nonzero;fill:url(#linear0);" d="M 13.5625 27.703125 L 18.191406 27.703125 L 18.191406 29.355469 L 13.5625 29.355469 Z M 13.5625 27.703125 "/>
<path style=" stroke:none;fill-rule:nonzero;fill:url(#linear1);" d="M 15.875 2.894531 C 22.816406 2.894531 28.445312 8.523438 28.445312 15.464844 C 28.445312 22.40625 22.816406 28.035156 15.875 28.035156 C 8.933594 28.035156 3.308594 22.40625 3.308594 15.464844 C 3.308594 8.523438 8.933594 2.894531 15.875 2.894531 Z M 15.875 2.894531 "/>
<path style=" stroke:none;fill-rule:nonzero;fill:rgb(0%,0%,0%);fill-opacity:0.196078;" d="M 15.875 28.035156 C 8.914062 28.035156 3.308594 22.429688 3.308594 15.464844 C 3.308594 15.425781 3.308594 15.382812 3.308594 15.34375 C 3.375 22.246094 8.953125 27.789062 15.875 27.789062 C 22.796875 27.789062 28.378906 22.246094 28.445312 15.34375 C 28.445312 15.382812 28.445312 15.425781 28.445312 15.464844 C 28.445312 22.429688 22.839844 28.035156 15.875 28.035156 Z M 15.875 28.035156 "/>
<path style=" stroke:none;fill-rule:nonzero;fill:rgb(100%,100%,100%);fill-opacity:0.392157;" d="M 15.875 2.894531 C 8.914062 2.894531 3.308594 8.5 3.308594 15.464844 C 3.308594 15.507812 3.308594 15.546875 3.308594 15.589844 C 3.375 8.683594 8.953125 3.140625 15.875 3.140625 C 22.796875 3.140625 28.378906 8.683594 28.445312 15.589844 C 28.445312 15.546875 28.445312 15.507812 28.445312 15.464844 C 28.445312 8.5 22.839844 2.894531 15.875 2.894531 Z M 15.875 2.894531 "/>
<path style=" stroke:none;fill-rule:nonzero;fill:rgb(12.941177%,12.941177%,12.941177%);fill-opacity:1;" d="M 15.875 2.800781 C 8.863281 2.800781 3.214844 8.453125 3.214844 15.464844 C 3.214844 22.476562 8.863281 28.128906 15.875 28.128906 C 22.890625 28.128906 28.539062 22.476562 28.539062 15.464844 C 28.539062 8.453125 22.890625 2.800781 15.875 2.800781 Z M 15.875 2.988281 C 22.789062 2.988281 28.351562 8.550781 28.351562 15.464844 C 28.351562 22.378906 22.789062 27.941406 15.875 27.941406 C 8.964844 27.941406 3.402344 22.378906 3.402344 15.464844 C 3.402344 8.550781 8.964844 2.988281 15.875 2.988281 Z M 15.875 2.988281 "/>
<path style=" stroke:none;fill-rule:nonzero;fill:url(#linear2);" d="M 15.875 8.519531 C 15.511719 8.519531 15.214844 8.8125 15.214844 9.179688 C 15.214844 9.496094 15.433594 9.757812 15.726562 9.824219 C 15.027344 11.292969 13.84375 14.140625 13.230469 14.140625 C 12.644531 14.140625 11.023438 13.105469 9.742188 11.949219 C 9.855469 11.832031 9.921875 11.671875 9.921875 11.496094 C 9.921875 11.128906 9.628906 10.835938 9.261719 10.835938 C 8.894531 10.835938 8.601562 11.128906 8.601562 11.496094 C 8.601562 11.5 8.601562 11.5 8.601562 11.503906 L 8.65625 11.761719 C 8.757812 11.996094 8.988281 12.15625 9.261719 12.15625 C 9.308594 12.15625 9.355469 12.152344 9.398438 12.144531 L 10.699219 18.214844 C 12.488281 18.773438 15.140625 18.773438 15.875 18.773438 C 16.609375 18.773438 19.265625 18.773438 21.050781 18.214844 L 22.351562 12.144531 C 22.398438 12.152344 22.445312 12.15625 22.492188 12.15625 C 22.761719 12.15625 22.996094 11.996094 23.097656 11.761719 L 23.152344 11.503906 C 23.152344 11.5 23.152344 11.5 23.152344 11.496094 C 23.152344 11.128906 22.859375 10.835938 22.492188 10.835938 C 22.125 10.835938 21.832031 11.128906 21.832031 11.496094 C 21.832031 11.671875 21.898438 11.832031 22.011719 11.949219 C 20.730469 13.105469 19.109375 14.140625 18.523438 14.140625 C 17.910156 14.140625 16.722656 11.292969 16.027344 9.824219 C 16.320312 9.757812 16.539062 9.496094 16.539062 9.179688 C 16.539062 8.8125 16.242188 8.519531 15.875 8.519531 Z M 10.894531 19.113281 L 11.246094 20.757812 C 12.570312 21.417969 15.214844 21.417969 15.875 21.417969 C 16.539062 21.417969 19.183594 21.417969 20.507812 20.757812 L 20.859375 19.113281 C 19.082031 19.617188 16.585938 19.617188 15.875 19.617188 C 15.167969 19.617188 12.671875 19.617188 10.894531 19.113281 Z M 10.894531 19.113281 "/>
<path style=" stroke:none;fill-rule:nonzero;fill:rgb(100%,100%,100%);fill-opacity:1;" d="M 15.875 8.519531 C 15.511719 8.519531 15.214844 8.8125 15.214844 9.179688 C 15.214844 9.238281 15.222656 9.292969 15.234375 9.347656 C 15.308594 9.058594 15.566406 8.851562 15.875 8.851562 C 16.1875 8.851562 16.445312 9.058594 16.515625 9.347656 C 16.53125 9.292969 16.539062 9.238281 16.539062 9.179688 C 16.539062 8.8125 16.242188 8.519531 15.875 8.519531 Z M 15.589844 10.109375 C 14.886719 11.628906 13.808594 14.140625 13.230469 14.140625 C 12.664062 14.140625 11.136719 13.175781 9.875 12.070312 C 9.84375 12.148438 9.800781 12.222656 9.742188 12.28125 C 11.023438 13.4375 12.644531 14.472656 13.230469 14.472656 C 13.84375 14.472656 15.027344 11.621094 15.726562 10.15625 C 15.679688 10.144531 15.632812 10.128906 15.589844 10.109375 Z M 16.160156 10.109375 C 16.121094 10.128906 16.074219 10.144531 16.027344 10.15625 C 16.722656 11.621094 17.910156 14.472656 18.523438 14.472656 C 19.109375 14.472656 20.730469 13.4375 22.011719 12.28125 C 21.953125 12.222656 21.90625 12.148438 21.875 12.070312 C 20.617188 13.175781 19.085938 14.140625 18.523438 14.140625 C 17.945312 14.140625 16.867188 11.628906 16.160156 10.109375 Z M 9.261719 10.835938 C 8.894531 10.835938 8.601562 11.128906 8.601562 11.496094 C 8.601562 11.5 8.601562 11.5 8.601562 11.503906 L 8.628906 11.632812 C 8.710938 11.363281 8.960938 11.164062 9.261719 11.164062 C 9.570312 11.164062 9.828125 11.375 9.902344 11.660156 C 9.914062 11.609375 9.921875 11.554688 9.921875 11.496094 C 9.921875 11.128906 9.628906 10.835938 9.261719 10.835938 Z M 22.492188 10.835938 C 22.125 10.835938 21.832031 11.128906 21.832031 11.496094 C 21.832031 11.554688 21.835938 11.609375 21.851562 11.660156 C 21.925781 11.375 22.183594 11.164062 22.492188 11.164062 C 22.792969 11.164062 23.042969 11.363281 23.125 11.632812 L 23.152344 11.503906 C 23.152344 11.5 23.152344 11.5 23.152344 11.496094 C 23.152344 11.128906 22.859375 10.835938 22.492188 10.835938 Z M 10.894531 19.113281 L 10.96875 19.464844 C 12.742188 19.945312 15.179688 19.945312 15.875 19.945312 C 16.574219 19.945312 19.011719 19.945312 20.785156 19.464844 L 20.859375 19.113281 C 19.082031 19.617188 16.585938 19.617188 15.875 19.617188 C 15.167969 19.617188 12.671875 19.617188 10.894531 19.113281 Z M 10.894531 19.113281 "/>
<path style=" stroke:none;fill-rule:nonzero;fill:rgb(0%,0%,0%);fill-opacity:0.235294;" d="M 16.488281 9.492188 C 16.410156 9.6875 16.238281 9.835938 16.027344 9.886719 C 16.089844 10.015625 16.15625 10.15625 16.222656 10.304688 C 16.410156 10.1875 16.539062 9.976562 16.539062 9.738281 C 16.539062 9.652344 16.519531 9.566406 16.488281 9.492188 Z M 15.261719 9.492188 C 15.230469 9.566406 15.214844 9.652344 15.214844 9.738281 C 15.214844 9.976562 15.339844 10.1875 15.53125 10.304688 C 15.597656 10.15625 15.664062 10.015625 15.726562 9.886719 C 15.515625 9.835938 15.34375 9.6875 15.261719 9.492188 Z M 8.648438 11.800781 C 8.617188 11.878906 8.601562 11.964844 8.601562 12.054688 C 8.601562 12.054688 8.601562 12.058594 8.601562 12.0625 L 8.65625 12.320312 C 8.757812 12.554688 8.988281 12.714844 9.261719 12.714844 C 9.308594 12.714844 9.355469 12.710938 9.398438 12.699219 L 10.699219 18.773438 C 12.488281 19.332031 15.140625 19.332031 15.875 19.332031 C 16.609375 19.332031 19.265625 19.332031 21.050781 18.773438 L 22.351562 12.699219 C 22.398438 12.710938 22.445312 12.714844 22.492188 12.714844 C 22.761719 12.714844 22.996094 12.554688 23.097656 12.320312 L 23.152344 12.0625 C 23.152344 12.058594 23.152344 12.054688 23.152344 12.054688 C 23.152344 11.964844 23.136719 11.878906 23.101562 11.800781 L 23.097656 11.824219 C 22.996094 12.058594 22.761719 12.21875 22.492188 12.21875 C 22.445312 12.21875 22.398438 12.214844 22.351562 12.203125 L 21.050781 18.277344 C 19.265625 18.835938 16.609375 18.835938 15.875 18.835938 C 15.140625 18.835938 12.488281 18.835938 10.699219 18.277344 L 9.398438 12.203125 C 9.355469 12.214844 9.308594 12.21875 9.261719 12.21875 C 8.988281 12.21875 8.757812 12.058594 8.65625 11.824219 Z M 9.875 11.804688 C 9.84375 11.882812 9.796875 11.953125 9.742188 12.011719 C 9.796875 12.0625 9.855469 12.113281 9.914062 12.164062 C 9.917969 12.128906 9.921875 12.089844 9.921875 12.054688 C 9.921875 11.964844 9.90625 11.882812 9.875 11.804688 Z M 21.878906 11.804688 C 21.847656 11.882812 21.832031 11.964844 21.832031 12.054688 C 21.832031 12.089844 21.832031 12.128906 21.839844 12.164062 C 21.898438 12.113281 21.953125 12.0625 22.011719 12.011719 C 21.953125 11.953125 21.910156 11.882812 21.878906 11.804688 Z M 10.894531 19.671875 L 11.246094 21.316406 C 12.570312 21.976562 15.214844 21.976562 15.875 21.976562 C 16.539062 21.976562 19.183594 21.976562 20.507812 21.316406 L 20.859375 19.671875 C 20.820312 19.683594 20.785156 19.691406 20.746094 19.703125 L 20.507812 20.820312 C 19.183594 21.480469 16.539062 21.480469 15.875 21.480469 C 15.214844 21.480469 12.570312 21.480469 11.246094 20.820312 L 11.007812 19.703125 C 10.96875 19.691406 10.929688 19.683594 10.894531 19.671875 Z M 10.894531 19.671875 "/>
<path style="fill:none;stroke-width:11.338583;stroke-linecap:butt;stroke-linejoin:miter;stroke:rgb(12.941177%,12.941177%,12.941177%);stroke-opacity:1;stroke-miterlimit:4;" d="M 959.908384 515.147683 C 937.941976 515.147683 919.990934 532.862528 919.990934 555.065133 C 919.990934 574.197166 933.218018 590.022427 950.932862 594.037792 C 908.653433 682.848213 837.085461 855.036503 800.002386 855.036503 C 764.572696 855.036503 666.550556 792.444052 589.077635 722.529465 C 595.927375 715.443527 599.94274 705.759412 599.94274 695.130505 C 599.94274 672.9279 582.227895 655.213055 560.02529 655.213055 C 537.822685 655.213055 520.10784 672.9279 520.10784 695.130505 C 520.10784 695.366703 520.10784 695.366703 520.10784 695.602901 L 523.414611 711.191964 C 529.555757 725.36384 543.491435 735.047955 560.02529 735.047955 C 562.859665 735.047955 565.69404 734.811757 568.292217 734.339362 L 646.946128 1101.390943 C 755.124779 1135.167247 915.503173 1135.167247 959.908384 1135.167247 C 1004.313594 1135.167247 1164.928186 1135.167247 1272.87064 1101.390943 L 1351.52455 734.339362 C 1354.358925 734.811757 1357.193301 735.047955 1360.027676 735.047955 C 1376.325333 735.047955 1390.497209 725.36384 1396.638355 711.191964 L 1399.945126 695.602901 C 1399.945126 695.366703 1399.945126 695.366703 1399.945126 695.130505 C 1399.945126 672.9279 1382.230281 655.213055 1360.027676 655.213055 C 1337.82507 655.213055 1320.110226 672.9279 1320.110226 695.130505 C 1320.110226 705.759412 1324.12559 715.443527 1330.97533 722.529465 C 1253.50241 792.444052 1155.480269 855.036503 1120.05058 855.036503 C 1082.967505 855.036503 1011.163334 682.848213 969.120103 594.037792 C 986.834948 590.022427 1000.062032 574.197166 1000.062032 555.065133 C 1000.062032 532.862528 982.110989 515.147683 959.908384 515.147683 Z M 658.756024 1155.716467 L 680.013838 1255.155795 C 760.084936 1295.073245 919.990934 1295.073245 959.908384 1295.073245 C 1000.062032 1295.073245 1159.96803 1295.073245 1240.039128 1255.155795 L 1261.296941 1155.716467 C 1153.826884 1186.186 1002.896407 1186.186 959.908384 1186.186 C 917.156559 1186.186 766.226082 1186.186 658.756024 1155.716467 Z M 658.756024 1155.716467 " transform="matrix(0.016538,0,0,0.016538,0,0)"/>
</g>
</svg>
